X: 865
T: Alejator, The
R: jig
M: 6/8
K: Gmajor
|:B/c/dB cBA|agf gdB|gdB GBd|e3 e2f|
g2c f2A|gfd cAB|cdc BAG|1 FGA cBA:|2 F3 F3||
|:cdc BAG|FGE3 G|FGD3 G|FGE3 B||cdc BAG|
FGD4|1 FED FGA|DEF GAd:|2 FGA cBA|B/c/dB cBA||

